frontend/public/svg/gender symbols/genderless.svg

<svg width="78" height="78" viewBox="0 0 78 78" fill="none" xmlns="http://www.w3.org/2000/svg">
<g clip-path="url(#clip0)">
<path d="M76.8386 39.3932C76.9443 45.4374 75.7983 51.4382 73.4736 57.0185C69.9615 65.7904 63.7172 71.6639 54.644 74.4114C45.9313 77.1627 36.6582 77.6333 27.7117 75.7779C15.0346 73.0908 6.8908 65.2504 2.83659 53.1685C-1.42633 40.4612 -0.46672 28.1501 6.85471 16.7101C8.47396 14.2868 10.4722 12.1394 12.773 10.3502C18.9261 5.42768 25.9956 2.62113 33.8415 1.39575C42.1074 0.104734 49.9321 1.53704 57.5882 4.31466C61.9155 5.88462 65.1764 9.07307 67.8868 12.7262C73.807 20.708 77.0841 29.6006 76.8386 39.3932ZM37.2017 8.79623C28.1357 9.41909 25.0405 10.3418 19.6296 13.6143C15.8388 15.846 12.7474 19.0929 10.7037 22.9882C5.23112 33.3728 6.13929 43.8024 10.4521 54.1771C13.9418 62.5737 20.4135 67.5566 29.3154 69.3162C37.4422 70.9223 45.4212 70.0848 53.206 67.4384C58.0806 65.7818 61.9872 62.6709 64.1872 58.0299C70.5325 44.6406 70.0659 31.5617 61.5843 19.1307C59.6791 16.1812 56.9684 13.8397 53.7736 12.383C48.0412 9.90859 42.0317 8.70828 37.2017 8.79623Z" fill="black"/>
</g>
<defs>
<clipPath id="clip0">
<rect width="77.4479" height="76.7915" fill="white" transform="translate(0.0307617 0.569824)"/>
</clipPath>
</defs>
</svg>

<svg xmlns="http://www.w3.org/2000/svg" width="78" height="78" fill="none" viewBox="0 0 78 78"><g clip-path="url(#a)"><path fill="#000" d="M76.839 39.393a43.8 43.8 0 0 1-3.365 17.626c-3.513 8.771-9.757 14.645-18.83 17.392a53.4 53.4 0 0 1-26.932 1.367C15.035 73.09 6.89 65.25 2.837 53.168-1.426 40.462-.467 28.15 6.855 16.71a27.2 27.2 0 0 1 5.918-6.36c6.153-4.922 13.223-7.729 21.069-8.954 8.265-1.291 16.09.141 23.746 2.919 4.328 1.57 7.588 4.758 10.299 8.411 5.92 7.982 9.197 16.875 8.952 26.667M37.202 8.796c-9.066.623-12.161 1.546-17.572 4.818a23.6 23.6 0 0 0-8.926 9.374c-5.473 10.385-4.565 20.814-.252 31.19 3.49 8.396 9.962 13.379 18.863 15.138 8.127 1.606 16.106.769 23.891-1.878 4.875-1.656 8.781-4.767 10.981-9.408 6.346-13.39 5.879-26.468-2.603-38.9a18.37 18.37 0 0 0-7.81-6.747C48.04 9.909 42.032 8.708 37.202 8.796"/></g><defs><clipPath id="a"><path fill="#fff" d="M.03.57h77.45v76.79H.03z"/></clipPath></defs></svg>
